svgs/light/border-center-v.svg

<svg xmlns="http://www.w3.org/2000/svg" viewBox="0 0 448 512"><!-- Font Awesome Pro 6.0.0-alpha2 by @fontawesome - https://fontawesome.com License - https://fontawesome.com/license (Commercial License) --><path d="M128 232C114.746 232 104 242.744 104 256C104 269.254 114.746 280 128 280S152 269.254 152 256C152 242.744 141.254 232 128 232ZM32 136C18.746 136 8 146.744 8 160C8 173.254 18.746 184 32 184S56 173.254 56 160C56 146.744 45.254 136 32 136ZM32 40C18.746 40 8 50.744 8 64C8 77.254 18.746 88 32 88S56 77.254 56 64C56 50.744 45.254 40 32 40ZM128 424C114.746 424 104 434.744 104 448C104 461.254 114.746 472 128 472S152 461.254 152 448C152 434.744 141.254 424 128 424ZM32 232C18.746 232 8 242.744 8 256C8 269.254 18.746 280 32 280S56 269.254 56 256C56 242.744 45.254 232 32 232ZM32 328C18.746 328 8 338.744 8 352C8 365.254 18.746 376 32 376S56 365.254 56 352C56 338.744 45.254 328 32 328ZM416 88C429.254 88 440 77.254 440 64C440 50.744 429.254 40 416 40S392 50.744 392 64C392 77.254 402.746 88 416 88ZM32 424C18.746 424 8 434.744 8 448C8 461.254 18.746 472 32 472S56 461.254 56 448C56 434.744 45.254 424 32 424ZM416 136C402.746 136 392 146.744 392 160C392 173.254 402.746 184 416 184S440 173.254 440 160C440 146.744 429.254 136 416 136ZM416 328C402.746 328 392 338.744 392 352C392 365.254 402.746 376 416 376S440 365.254 440 352C440 338.744 429.254 328 416 328ZM320 40C306.746 40 296 50.744 296 64C296 77.254 306.746 88 320 88S344 77.254 344 64C344 50.744 333.254 40 320 40ZM416 424C402.746 424 392 434.744 392 448C392 461.254 402.746 472 416 472S440 461.254 440 448C440 434.744 429.254 424 416 424ZM128 40C114.746 40 104 50.744 104 64C104 77.254 114.746 88 128 88S152 77.254 152 64C152 50.744 141.254 40 128 40ZM416 232C402.746 232 392 242.744 392 256C392 269.254 402.746 280 416 280S440 269.254 440 256C440 242.744 429.254 232 416 232ZM320 232C306.746 232 296 242.744 296 256C296 269.254 306.746 280 320 280S344 269.254 344 256C344 242.744 333.254 232 320 232ZM320 424C306.746 424 296 434.744 296 448C296 461.254 306.746 472 320 472S344 461.254 344 448C344 434.744 333.254 424 320 424ZM224 32C215.156 32 208 39.156 208 48V464C208 472.844 215.156 480 224 480S240 472.844 240 464V48C240 39.156 232.844 32 224 32Z"/></svg>

<svg xmlns="http://www.w3.org/2000/svg" viewBox="0 0 448 512"><!--! Font Awesome Pro 6.0.0-alpha3 by @fontawesome - https://fontawesome.com License - https://fontawesome.com/license (Commercial License) --><path d="M128 232C114.7 232 104 242.7 104 256c0 13.25 10.75 24 24 24S152 269.3 152 256C152 242.7 141.3 232 128 232zM32 136C18.75 136 8 146.7 8 160c0 13.25 10.75 24 24 24S56 173.3 56 160C56 146.7 45.25 136 32 136zM32 40C18.75 40 8 50.74 8 64c0 13.25 10.75 24 24 24S56 77.25 56 64C56 50.74 45.25 40 32 40zM128 424c-13.25 0-24 10.74-24 24c0 13.25 10.75 24 24 24S152 461.3 152 448C152 434.7 141.3 424 128 424zM32 232C18.75 232 8 242.7 8 256c0 13.25 10.75 24 24 24S56 269.3 56 256C56 242.7 45.25 232 32 232zM32 328c-13.25 0-24 10.74-24 24c0 13.25 10.75 24 24 24S56 365.3 56 352C56 338.7 45.25 328 32 328zM416 88c13.25 0 24-10.75 24-24c0-13.26-10.75-24-24-24S392 50.74 392 64C392 77.25 402.7 88 416 88zM32 424c-13.25 0-24 10.74-24 24c0 13.25 10.75 24 24 24S56 461.3 56 448C56 434.7 45.25 424 32 424zM416 136c-13.25 0-24 10.74-24 24c0 13.25 10.75 24 24 24S440 173.3 440 160C440 146.7 429.3 136 416 136zM416 328c-13.25 0-24 10.74-24 24c0 13.25 10.75 24 24 24s24-10.75 24-24C440 338.7 429.3 328 416 328zM320 40c-13.25 0-24 10.74-24 24c0 13.25 10.75 24 24 24S344 77.25 344 64C344 50.74 333.3 40 320 40zM416 424c-13.25 0-24 10.74-24 24c0 13.25 10.75 24 24 24s24-10.75 24-24C440 434.7 429.3 424 416 424zM128 40C114.7 40 104 50.74 104 64c0 13.25 10.75 24 24 24S152 77.25 152 64C152 50.74 141.3 40 128 40zM416 232c-13.25 0-24 10.74-24 24c0 13.25 10.75 24 24 24S440 269.3 440 256C440 242.7 429.3 232 416 232zM320 232c-13.25 0-24 10.74-24 24c0 13.25 10.75 24 24 24S344 269.3 344 256C344 242.7 333.3 232 320 232zM320 424c-13.25 0-24 10.74-24 24c0 13.25 10.75 24 24 24s24-10.75 24-24C344 434.7 333.3 424 320 424zM224 32C215.2 32 208 39.16 208 48v416c0 8.844 7.156 16 16 16s16-7.156 16-16v-416C240 39.16 232.8 32 224 32z"/></svg>
